X:2607
T:Holborn March      %Tune name
Q:1/4=200     %Tempo
O:England
M:4/4     %Meter
L:1/8     %
K:F
"F"c4 c4 |c6 Bc |"Bb"d2 c2 B2 A2 |"C"G6 C2 |"F"F2 A4 "C"G2 |
"F"A2 c4 "Bb"B2 |"F"A4 "C"G4 |"F"F8 :|"C"g4 g4 |g6 fg |
"F"a2 g2 f2 e2 |"G"d6 G2 |"C"c2 e4 "(G)"c2 |"C"e2 g4 "F"f2 |"C"e4 "G"d4 |"C"c8 ||"F"c4 c4 |
c6 Bc |"Bb"d2 c2 B2 A2 |"C"G6 C2 |"F"F2 A4 "C"G2 |"F"A2 c4 "Bb"b2 |"F"a2 gf "C"g2 e2 |"F"f8 |]


